_inc/systems/logos/tg-cd.svg

<?xml version="1.0" encoding="utf-8"?>
<svg version="1.1" id="Ebene_1" x="0px" y="0px" enable-background="new 0 0 566.926 121.783" viewBox="0 0 264 57" xmlns="http://www.w3.org/2000/svg">
  <polygon points="0 0 13.076 0 13.076 3.867 9.249 3.867 9.249 56.363 4.624 56.363 4.624 3.867 0 3.867" id="polygon5" style="fill:#ffffff;fill-opacity:1"/>
  <path d="M 24.922 52.521 L 30.026 52.521 L 30.026 15.742 L 34.49 15.742 L 34.49 52.521 C 34.49 54.902 32.339 56.587 30.132 56.587 L 24.922 56.587 C 22.59 56.587 20.51 54.681 20.51 52.473 L 20.51 15.742 L 24.922 15.742 L 24.922 52.521 Z" id="path7" style="fill:#ffffff;fill-opacity:1"/>
  <path d="M 120.923 24.725 L 127.74 24.725 L 127.74 56.625 L 118.132 56.625 C 116.078 56.625 113.548 55.043 113.548 52.646 L 113.548 4.426 C 113.548 2.4 115.66 0.243 118.032 0.243 L 123.275 0.243 C 125.601 0.243 127.71 2.381 127.71 4.38 L 127.71 15.803 L 123.115 15.803 L 123.115 4.539 L 117.893 4.539 L 117.893 52.682 L 123.235 52.682 L 123.235 28.629 L 120.923 28.629 L 120.923 24.725 Z" id="path9" style="fill:#ffffff;fill-opacity:1"/>
  <path d="M 186.851 37.047 L 186.851 56.382 L 182.547 56.382 L 182.547 19.352 C 182.547 17.679 184.202 15.856 186.294 15.856 L 193.391 15.856 L 193.391 19.425 L 186.851 19.425 L 186.851 33.107 L 192.236 33.107 L 192.236 37.065 L 186.851 37.047 Z" id="path11" style="fill:#ffffff;fill-opacity:1"/>
  <path d="M 202.121 15.866 L 206.639 15.866 L 206.639 30.615 L 209.191 33.193 L 211.688 30.687 L 211.688 15.866 L 216.153 15.866 L 216.153 29.899 C 216.153 31.612 211.743 36.127 211.743 36.127 C 211.743 36.127 216.207 40.639 216.207 42.467 L 216.207 56.464 L 212.007 56.464 L 212.007 41.891 L 209.297 39.136 L 206.585 41.855 L 206.585 56.464 L 202.121 56.464 L 202.121 42.5 C 202.121 40.783 206.849 36.091 206.849 36.091 C 206.849 36.091 202.121 31.628 202.121 29.829 L 202.121 15.866 Z" id="path13" style="fill:#ffffff;fill-opacity:1"/>
  <path d="M 53.839 37.139 C 55.353 37.139 57.367 35.319 57.367 32.883 L 57.367 19.573 C 57.367 17.659 55.194 15.876 52.722 15.876 L 43.553 15.876 L 43.553 56.545 L 47.78 56.545 L 47.78 37.437 L 49.375 37.437 L 54.078 56.473 L 58.224 56.473 L 53.839 37.139 Z M 53.002 33.161 L 47.938 33.161 L 47.938 19.816 L 53.002 19.816 L 53.002 33.161 Z" id="path15" style="fill:#ffffff;fill-opacity:1"/>
  <path d="M 147.363 37.033 C 148.879 37.033 150.894 35.21 150.894 32.775 L 150.894 19.466 C 150.894 17.551 148.719 15.765 146.249 15.765 L 137.081 15.765 L 137.081 56.439 L 141.303 56.439 L 141.303 37.329 L 142.899 37.329 L 147.605 56.363 L 151.75 56.363 L 147.363 37.033 Z M 146.466 33.01 L 141.406 33.01 L 141.406 19.665 L 146.466 19.665 L 146.466 33.01 Z" id="path17" style="fill:#ffffff;fill-opacity:1"/>
  <path d="M 79.96 38.097 C 79.942 36.274 78.049 35.122 78.049 35.122 C 78.049 35.122 79.96 33.878 79.96 32.148 L 79.96 19.732 C 79.96 17.389 77.908 15.865 75.816 15.865 L 66.168 15.865 L 66.168 56.464 L 75.816 56.464 C 77.769 56.464 79.96 55.238 79.96 52.598 C 79.96 52.598 79.983 39.917 79.96 38.097 Z M 75.616 52.486 L 70.554 52.486 L 70.554 37.354 L 75.616 37.354 L 75.616 52.486 Z M 75.616 33.152 L 70.554 33.152 L 70.554 19.807 L 75.616 19.807 L 75.616 33.152 Z" id="path19" style="fill:#ffffff;fill-opacity:1"/>
  <path d="M 98.439 15.565 L 95.887 15.565 L 93.415 15.565 C 90.883 15.565 89.041 17.74 89.041 19.394 L 89.041 52.367 C 89.041 54.498 91.402 56.431 93.395 56.431 L 98.857 56.431 C 100.991 56.431 103.122 54.218 103.122 52.452 L 103.122 19.283 C 103.122 17.797 101.109 15.565 98.439 15.565 Z M 98.597 52.24 L 93.707 52.24 L 93.707 19.581 L 98.597 19.581 L 98.597 52.24 Z" id="path21" style="fill:#ffffff;fill-opacity:1"/>
  <path d="M 169.36 15.856 L 163.782 15.856 C 161.268 15.856 159.794 17.937 159.794 19.573 L 159.794 56.382 L 164.019 56.382 L 164.019 37.047 L 169.36 37.047 L 169.36 56.382 L 173.587 56.382 L 173.587 19.796 C 173.585 17.368 171.914 15.856 169.36 15.856 Z M 169.239 33.033 L 164.179 33.033 L 164.179 19.946 L 169.239 19.946 L 169.239 33.033 Z" id="path23" style="fill:#ffffff;fill-opacity:1"/>
  <path d="M 243.25 15.3 C 231.789 15.3 222.5 24.635 222.5 36.149 C 222.5 47.665 231.791 57 243.25 57 C 254.71 57 264 47.665 264 36.149 C 264 24.635 254.71 15.3 243.25 15.3 Z M 242.212 30.938 L 240.137 30.938 L 240.137 29.895 L 239.1 28.853 L 230.799 28.853 L 230.799 44.489 L 239.1 44.489 L 240.137 43.447 L 240.137 42.405 L 242.212 42.405 L 242.212 44.489 L 240.137 46.575 L 229.762 46.575 L 228.725 45.532 L 228.725 27.81 L 229.762 26.768 L 240.137 26.768 L 242.212 28.853 L 242.212 30.938 Z M 257.774 44.489 L 255.7 46.575 L 244.287 46.575 L 244.287 44.489 L 245.326 44.489 L 245.326 28.853 L 244.287 28.853 L 244.287 26.767 L 255.7 26.767 L 257.774 28.853 L 257.774 44.489 Z M 247.401 44.489 L 255.7 44.489 L 255.7 28.853 L 247.401 28.853 L 247.401 44.489 Z" style="fill: rgb(255, 255, 255);"/>
</svg>

<svg xmlns="http://www.w3.org/2000/svg" viewBox="0 0 264 57"><path d="M0 0h13.08v3.87H9.25v52.49H4.62V3.87H0zm24.92 52.52h5.1V15.74h4.47v36.78c0 2.38-2.15 4.07-4.36 4.07h-5.2c-2.34 0-4.42-1.9-4.42-4.12V15.74h4.41zm96-27.79h6.82v31.9h-9.6c-2.06 0-4.6-1.59-4.6-3.98V4.43c0-2.03 2.12-4.19 4.5-4.19h5.24c2.32 0 4.43 2.14 4.43 4.14V15.8h-4.6V4.54h-5.22v48.14h5.34V28.63h-2.3zm65.93 12.32v19.33h-4.3V19.35c0-1.67 1.65-3.5 3.74-3.5h7.1v3.58h-6.54V33.1h5.39v3.95zm15.27-21.18h4.52v14.75l2.55 2.57 2.5-2.5V15.87h4.46V29.9c0 1.71-4.4 6.23-4.4 6.23s4.46 4.5 4.46 6.34v14H212V41.88l-2.71-2.75-2.72 2.71v14.61h-4.46V42.5c0-1.72 4.73-6.4 4.73-6.4s-4.73-4.47-4.73-6.27zM53.84 37.14c1.51 0 3.53-1.82 3.53-4.26v-13.3c0-1.92-2.18-3.7-4.65-3.7h-9.17v40.67h4.23V37.44h1.6l4.7 19.03h4.14zM53 33.16h-5.06V19.82H53zm94.36 3.87c1.52 0 3.53-1.82 3.53-4.26v-13.3c0-1.92-2.17-3.7-4.64-3.7h-9.17v40.67h4.22V37.33h1.6l4.7 19.03h4.15zm-.9-4.02h-5.05V19.67h5.06zm-66.5 5.09c-.02-1.83-1.91-2.98-1.91-2.98s1.91-1.24 1.91-2.97V19.73c0-2.34-2.05-3.86-4.14-3.86h-9.65v40.6h9.65c1.95 0 4.14-1.23 4.14-3.87 0 0 .02-12.68 0-14.5m-4.34 14.39h-5.07V37.35h5.07zm0-19.34h-5.07V19.81h5.07zm22.82-17.58h-5.02c-2.54 0-4.38 2.17-4.38 3.82v32.98c0 2.13 2.36 4.06 4.35 4.06h5.47c2.13 0 4.26-2.21 4.26-3.98V19.28c0-1.48-2.01-3.72-4.68-3.72m.16 36.67h-4.9V19.58h4.9zm70.76-36.37h-5.58a3.9 3.9 0 0 0-3.99 3.71v36.81h4.23V37.05h5.34v19.33h4.23V19.8c0-2.43-1.68-3.94-4.23-3.94m-.12 17.17h-5.06V19.95h5.06z" style="fill:#fff;fill-opacity:1"/><path d="M243.25 15.3a20.8 20.8 0 0 0-20.75 20.85A20.8 20.8 0 0 0 243.25 57 20.8 20.8 0 0 0 264 36.15a20.8 20.8 0 0 0-20.75-20.85m-1.04 15.64h-2.07v-1.05l-1.04-1.04h-8.3V44.5h8.3l1.04-1.04V42.4h2.07v2.09l-2.07 2.09h-10.38l-1.03-1.05V27.81l1.03-1.04h10.38l2.07 2.08zm15.56 13.55-2.07 2.09h-11.41v-2.1h1.04V28.86h-1.04v-2.08h11.41l2.07 2.08zm-10.37 0h8.3V28.85h-8.3z" style="fill:#fff"/></svg>
